img/svg/net/sitekiosk.svg

<?xml version="1.0" encoding="iso-8859-1"?>
<!-- Generator: Adobe Illustrator 21.0.2, SVG Export Plug-In . SVG Version: 6.00 Build 0)  -->
<svg version="1.1" id="&#x56FE;&#x5C42;_1" xmlns="http://www.w3.org/2000/svg" xmlns:xlink="http://www.w3.org/1999/xlink" x="0px"
	 y="0px" viewBox="0 0 16 16" style="enable-background:new 0 0 16 16;" xml:space="preserve">
<g>
	<path d="M8,1C4.134,1,1,4.134,1,8c0,3.866,3.134,7,7,7s7-3.134,7-7C15,4.134,11.866,1,8,1z M10.096,11.416
		C9.494,11.805,8.637,12,7.528,12c-1.014,0-1.845-0.143-2.494-0.43V9.918c0.713,0.516,1.524,0.774,2.431,0.774
		c0.515,0,0.902-0.078,1.162-0.232c0.259-0.154,0.389-0.354,0.389-0.596c0-0.21-0.104-0.408-0.31-0.595
		C8.5,9.082,7.957,8.828,7.076,8.509C5.692,7.997,5,7.251,5,6.272c0-0.719,0.314-1.278,0.941-1.675C6.568,4.199,7.399,4,8.432,4
		c0.866,0,1.593,0.098,2.179,0.295v1.548C10.016,5.49,9.32,5.313,8.523,5.313c-0.465,0-0.837,0.074-1.115,0.222
		C7.13,5.684,6.99,5.883,6.99,6.132c0,0.2,0.095,0.384,0.286,0.552c0.191,0.168,0.661,0.395,1.413,0.681
		c0.881,0.33,1.486,0.677,1.816,1.044C10.836,8.776,11,9.212,11,9.718C11,10.46,10.698,11.026,10.096,11.416z"/>
</g>
</svg>

<svg xmlns="http://www.w3.org/2000/svg" viewBox="0 0 16 16"><title>sitekiosk</title><path d="M8,1a7,7,0,1,0,7,7A7,7,0,0,0,8,1Zm2.1,10.42A4.74,4.74,0,0,1,7.53,12,6.2,6.2,0,0,1,5,11.57V9.92a4,4,0,0,0,2.43.77,2.32,2.32,0,0,0,1.16-.23A.68.68,0,0,0,9,9.86a.81.81,0,0,0-.31-.59,6.08,6.08,0,0,0-1.63-.76Q5,7.74,5,6.27A1.88,1.88,0,0,1,5.94,4.6,4.59,4.59,0,0,1,8.43,4a6.93,6.93,0,0,1,2.18.29V5.84a4,4,0,0,0-2.09-.53,2.38,2.38,0,0,0-1.11.22.67.67,0,0,0-.42.6.73.73,0,0,0,.29.55,5.6,5.6,0,0,0,1.41.68,4.7,4.7,0,0,1,1.82,1A1.89,1.89,0,0,1,11,9.72,1.9,1.9,0,0,1,10.1,11.42Z"/></svg>
